X:1886
T:Polska efter Karl Nilsa
R:Polska
S:Efter Karl Nilsa
O:Bjurtjärn, Karlskoga, Värmland
Z:ABC-transkribering av Per Saxholm
M:3/4
L:1/8
K:D
AF (3DFA (3DFA|BG (3DGB (3DGB|cB (3ABc (3ABc|dc BA FG|AF (3DFA (3DFA|BG (3DGB (3DGB|cB (3ABc (3ABc| d2 d4:|(3DFA dc (3Bcd|cB AG FG|A2 A,C EG|(3ECE DF A2|(3DFA dc (3Bcd|cB AG FG|A2 A,C EG|(3ECE D4:|
(:musicend:)
(:music:)
